flags/ca.svg

<svg width="512" height="512" viewBox="0 0 512 512" fill="none" xmlns="http://www.w3.org/2000/svg">
<path d="M384 512L128 512L128 -1.11901e-05L384 1.11901e-05L384 512Z" fill="var(--flag-palette-white, #eeeeee)"/>
<path d="M144 512L-3.7639e-05 512L0 -6.29444e-06L144 6.29444e-06L144 512Z" fill="var(--flag-palette-bright-red, #d80027)"/>
<path d="M512 512L368 512L368 -6.29444e-06L512 6.29444e-06L512 512Z" fill="var(--flag-palette-bright-red, #d80027)"/>
<path d="M300.522 289.391L345.043 267.13L322.783 256V233.739L278.261 256L300.522 211.478H278.261L256 178.087L233.739 211.478H211.478L233.739 256L189.217 233.739V256L166.957 267.13L211.478 289.391L200.348 311.652H244.87V345.043H267.13V311.652H311.652L300.522 289.391Z" fill="var(--flag-palette-bright-red, #d80027)"/>
</svg>

<svg xmlns="http://www.w3.org/2000/svg" width="512" height="512" fill="none"><path fill="var(--flag-palette-white, #eeeeee)" d="M384 512H128V0h256z"/><path fill="var(--flag-palette-bright-red, #d80027)" d="M144 512H0V0h144zm368 0H368V0h144zM300.5 289.4 345 267l-22.2-11v-22.3L278.3 256l22.2-44.5h-22.2L256 178l-22.3 33.4h-22.2l22.2 44.5-44.5-22.3V256L167 267.1l44.5 22.3-11.2 22.3H245V345h22v-33.3h44.6z"/></svg>
